!!!!SEGMENT: pl-cz--d-ii-40--008_elsner-jozef--requiem-in-c-op-42-lux.krn
!!!cenid: 18xx:37
!!!COM: Elsner, Józef
!!!COM-rismID: pe30000957
!!!CDT: 1769/06/01-1854/04/18
!!!CNT: Polish
!!!OPR: Requiem in C op. 42
!!!OTL: Lux
!!!OMV: 008
!!!PDT:
!!!AGN: Sacred; Requiem
!!!SMS-siglum: PL-CZ
!!!SMS-shelfmark: D II-40
!!!SMS-shelfwork: 001-008 M
!!!NIFC-rismSourceID:
!!!NIFC-islandoraID: pl-cz:35407
!!!URL-pdf-islandora: https://repozytorium.nifc.pl/islandora/object/pl-cz%3A35407/datastream/PDF/view
!!!URL-scan:
!!!ONB-nifc:
!!!OMD: Andante
!!!AIN: 1 bass 2 cello 1 cor 3 empty 2 fagot 1 tenor 1 timpa 3 tromt
!!!key:
**kern	**dynam	**kern	**dynam	**kern	**dynam	**kern	**kern	**kern	**kern	**dynam	**kern	**kern	**dynam	**kern	**text	**dynam	**kern	**text	**dynam	**kern	**text	**dynam
*part12	*part12	*part11	*part11	*part10	*part10	*part9	*part8	*part7	*part6	*part6	*part5	*part4	*part4	*part3	*part3	*part3	*part2	*part2	*part2	*part1	*part1	*part1
*staff12	*	*staff11	*	*staff10	*	*staff9	*staff8	*staff7	*staff6	*	*staff5	*staff4	*	*staff3	*staff3	*	*staff2	*staff2	*	*staff1	*staff1	*
*Iempty	*	*Itimpa	*	*Iempty	*	*Icor	*Itromt	*Itromt	*Itromt	*	*Icello&Ifagot	*Icello&Ifagot	*	*Ibass	*	*	*Itenor	*	*	*Iempty	*	*
*I"Bassi	*	*I"Tympani	*	*I"Clarini	*	*I"Corno	*I"Trombone III	*I"Tromboni	*I"Trombone I	*	*I"Violon.1.o con Fagotto.	*I"Violonc.1.o con Fagotto.	*	*I"Basso	*	*	*I"Tenore II	*	*	*I"Lux eternam et Requiem	*	*
*I'Cb	*	*I'Timp	*	*I'Clni	*	*I'Cor	*I'Tbn III	*I'Tbn II	*I'Tbn I	*	*I'Vc II con Fg	*I'Vc I con. Fg	*	*I'B	*	*	*I'T II	*	*	*I'T I	*	*
*clefF4	*	*clefF4	*	*clefG2	*	*clefG2	*clefF4	*clefC4	*clefC4	*	*clefF4	*clefC4	*	*clefF4	*	*	*clefC4	*	*	*clefC4	*	*
*	*	*	*	*	*	*ITrd4c7	*	*	*	*	*	*	*	*	*	*	*	*	*	*	*	*
*k[b-e-a-]	*	*k[]	*	*k[]	*	*k[b-]	*k[b-e-a-]	*k[b-e-a-]	*k[b-e-a-]	*	*k[b-e-a-]	*k[b-e-a-]	*	*k[b-e-a-]	*	*	*k[b-e-a-]	*	*	*k[b-e-a-]	*	*
*c:	*	*	*	*	*	*	*c:	*c:	*c:	*	*c:	*c:	*	*c:	*	*	*c:	*	*	*c:	*	*
*M2/2	*	*M2/2	*	*M2/2	*	*M2/2	*M2/2	*M2/2	*M2/2	*	*M2/2	*M2/2	*	*M2/2	*	*	*M2/2	*	*	*M2/2	*	*
*met(c|)	*	*met(c|)	*	*met(c|)	*	*met(c|)	*met(c|)	*met(c|)	*met(c|)	*	*met(c|)	*met(c|)	*	*met(c|)	*	*	*met(c|)	*	*	*met(c|)	*	*
=1	=1	=1	=1	=1	=1	=1	=1	=1	=1	=1	=1	=1	=1	=1	=1	=1	=1	=1	=1	=1	=1	=1
!	!	!LO:SIC:v=brak znaków przykluczowych	!	!	!	!	!	!	!	!	!	!	!	!	!	!	!	!	!	!LO:TX:a:B:t=Andante	!	!
4r	.	1r	.	4r	.	4r	4r	4r	4r	.	4r	4r	.	4r	.	.	4r	.	.	4r	.	.
!	!LO:HP:b	!	!	!	!	!	!	!	!	!	!	!	!	!	!	!	!	!	!	!	!	!
2F\	>	.	.	2cc\	.	2F/ 2f/	2F\	2An\	2c\	>	2An\	2c\	>	2F\	Lux	.	2An\	Lux	.	2c\	Lux	>
4F\	]	.	.	4cc\	.	4F/ 4f/	4F\	4A\	4c\	]	4A\	4c\	]	4F\	e-	.	4A\	e-	.	4c\	e-	.
.	.	.	.	.	.	.	.	.	.	.	.	.	.	.	.	.	.	.	.	.	.	]
=2	=2	=2	=2	=2	=2	=2	=2	=2	=2	=2	=2	=2	=2	=2	=2	=2	=2	=2	=2	=2	=2	=2
!	!	!	!	!	!	!	!	!	!	!	!	!	!	!LO:SIC:v=problem: brak kropki przy ćwierćnucie	!	!	!	!	!	!	!	!
*	*	*	*	*^	*	*	*	*	*	*	*	*	*	*	*	*	*	*	*	*	*	*
!	!	!	!	!	!	!	!	!	!	!	!	!	!	!	!LO:N:vis=4	!	!	!	!	!	!	!	!
4.BB-/	.	1r	.	4dd/	4b-X\	.	4F/ 4f/	4BB-/	4B-\	4d\	.	4.B-\	4.d\	.	4.BB-/	-ter-	.	(>4.B-\	-ter-	.	(>4.dn\	-ter-	.
.	.	.	.	4r	4ryy	.	4r	4r	4r	4r	.	.	.	.	.	.	.	.	.	.	.	.	.
8D\	.	.	.	.	.	.	.	.	.	.	.	8F\	8B-\	.	8Dn\	.	.	8F/)	.	.	8B-\)	.	.
4D\	.	.	.	2r	2ryy	.	2r	2r	2r	2r	.	4F\	4B-\	.	4D\	-na	.	4F/	-na	.	4B-\	-na	.
4r	.	.	.	.	.	.	.	.	.	.	.	4r	4r	.	4r	.	.	4r	.	.	4r	.	.
*	*	*	*	*v	*v	*	*	*	*	*	*	*	*	*	*	*	*	*	*	*	*	*	*
=3	=3	=3	=3	=3	=3	=3	=3	=3	=3	=3	=3	=3	=3	=3	=3	=3	=3	=3	=3	=3	=3	=3
!	!LO:HP:b	!	!	!	!	!	!	!	!	!	!	!	!	!	!	!	!	!	!	!	!	!
4r	>	4r	.	4r	.	4r	4r	4r	4r	.	4r	4r	.	4r	.	.	4r	.	.	4r	.	.
*	*	*tremolo	*	*	*	*	*	*	*	*	*	*	*	*	*	*	*	*	*	*	*	*
!	!	!LO:SIC:v=powinno być tremolo na E-	!	!	!	!	!	!	!	!	!	!	!	!	!	!	!	!	!	!	!	!
2E-\	.	16E\LL	.	2g/	.	2e-X/	2E-\	2G/	2B-\	.	2G\	2B-\	>	2E-\	Lux	.	2G/	Lux	.	2B-\	Lux	>
.	]	16E\	.	.	.	.	.	.	.	.	.	.	.	.	.	.	.	.	.	.	.	.
.	.	16E\	.	.	.	.	.	.	.	.	.	.	.	.	.	.	.	.	.	.	.	.
.	.	16E\	.	.	.	.	.	.	.	.	.	.	.	.	.	.	.	.	.	.	.	.
.	.	16E\	.	.	.	.	.	.	.	.	.	.	.	.	.	.	.	.	.	.	.	.
.	.	16E\	.	.	.	.	.	.	.	.	.	.	.	.	.	.	.	.	.	.	.	.
.	.	16E\	.	.	.	.	.	.	.	.	.	.	.	.	.	.	.	.	.	.	.	.
.	.	16E\JJ	.	.	.	.	.	.	.	.	.	.	.	.	.	.	.	.	.	.	.	.
4E-\	.	16E\LL	.	4g/	.	4e-/	4E-\	4G/	4B-\	.	4G\	4B-\	]	4E-\	e-	.	4G/	e-	.	4B-\	e-	]
.	.	16E\	.	.	.	.	.	.	.	.	.	.	.	.	.	.	.	.	.	.	.	.
.	.	16E\	.	.	.	.	.	.	.	.	.	.	.	.	.	.	.	.	.	.	.	.
.	.	16E\JJ	.	.	.	.	.	.	.	.	.	.	.	.	.	.	.	.	.	.	.	.
=4	=4	=4	=4	=4	=4	=4	=4	=4	=4	=4	=4	=4	=4	=4	=4	=4	=4	=4	=4	=4	=4	=4
4.C/	.	4C/	.	4c/ 4g/	.	4e-X/	4C/	4G/	4e-\	.	2G\	4.e-\	.	4.C/	-ter-	.	2G/	-ter-	.	(>4.e-\	-ter-	.
.	.	4r	.	4r	.	4r	4r	4r	4r	.	.	.	.	.	.	.	.	.	.	.	.	.
8E-\	.	.	.	.	.	.	.	.	.	.	.	8c\	.	8E-\	.	.	.	.	.	8c\)	.	.
4E-\	.	2r	.	2r	.	2r	2r	2r	2r	.	4G\	4c\	.	4E-\	-na	.	4G/	-na	.	4c\	-na	.
4r	.	.	.	.	.	.	.	.	.	.	4r	4r	.	4r	.	.	4r	.	.	4r	.	.
=5	=5	=5	=5	=5	=5	=5	=5	=5	=5	=5	=5	=5	=5	=5	=5	=5	=5	=5	=5	=5	=5	=5
*	*	*	*	*	*	*	*	*	*	*	*	*	*	*	*	*	*^	*	*	*	*	*
4.D/	ff	1r	.	1r	.	1r	4D\	4F#X/	4d\	.	4.F#X\ 4.An\	4.d\	.	4.D/	lu-	.	4.An/	4.F#X\	lu-	.	4.d\	lu-	ff
.	.	.	.	.	.	.	4r	4r	4r	.	.	.	.	.	.	.	.	.	.	.	.	.	.
8D/	.	.	.	.	.	.	.	.	.	.	8F#\ 8A\	8d\	.	8D/	-ce-	.	8A/	8F#\	-ce-	.	8d\	-ce-	.
4D/	.	.	.	.	.	.	2r	2r	2r	.	4F#\ 4A\	4d\	.	4D/	-at	.	4A/	4F#\	-at	.	4d\	-at	.
4r	.	.	.	.	.	.	.	.	.	.	4r	4r	.	4r	.	.	4r	4ryy	.	.	4r	.	.
*	*	*	*	*	*	*	*	*	*	*	*	*	*	*	*	*	*v	*v	*	*	*	*	*
=6	=6	=6	=6	=6	=6	=6	=6	=6	=6	=6	=6	=6	=6	=6	=6	=6	=6	=6	=6	=6	=6	=6
!	!	!	!	!	!	!	!	!	!	!	!	!	!	!	!	!	!LO:SIC:v:s=1Bn górna nuta	!	!	!	!	!
1G\	.	16GG/LL	.	2.G/ 2.g/	.	2.g/	2.GG/	2.Bn\	2.d\	.	1G\ 1Bn\	1d\	>	1G\	e-	.	1G/ 1B-/	e-	.	1Bn\ 1d\	e-	>
.	.	16GG/	.	.	.	.	.	.	.	.	.	.	.	.	.	.	.	.	.	.	.	.
.	.	16GG/	.	.	.	.	.	.	.	.	.	.	.	.	.	.	.	.	.	.	.	.
.	.	16GG/	.	.	.	.	.	.	.	.	.	.	]	.	.	.	.	.	.	.	.	.
.	.	16GG/	.	.	.	.	.	.	.	.	.	.	.	.	.	.	.	.	.	.	.	.
.	.	16GG/	.	.	.	.	.	.	.	.	.	.	.	.	.	.	.	.	.	.	.	.
.	.	16GG/	.	.	.	.	.	.	.	.	.	.	.	.	.	.	.	.	.	.	.	.
.	.	16GG/JJ	.	.	.	.	.	.	.	.	.	.	.	.	.	.	.	.	.	.	.	.
.	.	4GG/	.	.	.	.	.	.	.	.	.	.	.	.	.	.	.	.	.	.	.	.
.	.	4r	.	4r	.	4r	4r	4r	4r	.	.	.	.	.	.	.	.	.	.	.	.	]
=7	=7	=7	=7	=7	=7	=7	=7	=7	=7	=7	=7	=7	=7	=7	=7	=7	=7	=7	=7	=7	=7	=7
*	*	*	*	*	*	*	*	*	*	*	*	*	*	*	*	*	*^	*	*	*	*	*
4E-\	.	1r	.	1r	.	1r	1r	1r	1r	.	4G\ 4c\	4c\	.	4E-\	-i	.	4c/	4G\	-i	.	4c\	-i	.
4BBn/	.	.	.	.	.	.	.	.	.	.	2G\	4d\	.	4BBn/	Do-	.	2G/	4ryy	Do-	.	(>4d\	Do-	.
4C/	.	.	.	.	.	.	.	.	.	.	.	4e-\	.	(<4C/	.	.	.	2ryy	.	.	4e-\	.	.
4AA-/	.	.	.	.	.	.	.	.	.	.	4c\	4f\	.	4AA-/)	.	.	[4c/	.	.	.	4f\	.	.
*	*	*	*	*	*	*	*	*	*	*	*	*	*	*	*	*	*v	*v	*	*	*	*	*
=8	=8	=8	=8	=8	=8	=8	=8	=8	=8	=8	=8	=8	=8	=8	=8	=8	=8	=8	=8	=8	=8	=8
2GG/	.	1r	.	1r	.	1r	1r	1r	1r	.	2c\	2e-\	.	2GG/	.	.	2c\]	.	.	2e-\	.	.
!	!	!	!	!	!	!	!	!	!	!	!	!	!	!	!	!	!LO:SIC:v= brak kropki przy ćwierćnucie	!	!	!	!	!
!	!	!	!	!	!	!	!	!	!	!	!	!	!	!	!	!	!LO:N:vis=4	!	!	!	!	!
2G\	.	.	.	.	.	.	.	.	.	.	4.Bn\	4.d\	.	2G\	-mi-	.	4.Bn\	.	.	4.d\)	.	.
.	.	.	.	.	.	.	.	.	.	.	8c\	8e-\	.	.	.	.	8c\	-mi-	.	8e-\	-mi-	.
=9	=9	=9	=9	=9	=9	=9	=9	=9	=9	=9	=9	=9	=9	=9	=9	=9	=9	=9	=9	=9	=9	=9
4A-\;	.	4r;	.	4r;	.	4r;	4r;	4r;	4r;	.	4c\;	4c\;	.	4A-\;	-ne	.	4c\;	-ne	.	4c\;	-ne	.
4r	.	4r	.	4r	.	4r	4r	4r	4r	.	4A-\	4r	.	4r	.	.	4A-\	cum	.	4r	.	.
2r	.	2r	.	2r	.	2r	2r	2r	2r	.	4A-\	2r	.	2r	.	.	4A-\	San-	.	2r	.	.
.	.	.	.	.	.	.	.	.	.	.	4G\	.	.	.	.	.	4G/	-ctis	.	.	.	.
=10	=10	=10	=10	=10	=10	=10	=10	=10	=10	=10	=10	=10	=10	=10	=10	=10	=10	=10	=10	=10	=10	=10
1r	.	1r	.	1r	.	1r	1r	1r	1r	.	2F\	4r	.	1r	.	.	2F/	tu-	.	4r	.	.
.	.	.	.	.	.	.	.	.	.	.	.	4d\	.	.	.	.	.	.	.	4d\	cum	.
.	.	.	.	.	.	.	.	.	.	.	2F#X\	4d\	.	.	.	.	2F#X/	-is	.	4d\	San-	.
.	.	.	.	.	.	.	.	.	.	.	.	4c\	.	.	.	.	.	.	.	4c\	-ctis	.
=11	=11	=11	=11	=11	=11	=11	=11	=11	=11	=11	=11	=11	=11	=11	=11	=11	=11	=11	=11	=11	=11	=11
4r	.	1r	.	1r	.	1r	1r	1r	1r	.	1G\	1Bn\	.	4r	.	.	1G/	tu-	.	1Bn\	tu-	.
4G\	.	.	.	.	.	.	.	.	.	.	.	.	.	4G\	cum	.	.	.	.	.	.	.
4G\	.	.	.	.	.	.	.	.	.	.	.	.	.	4G\	San-	.	.	.	.	.	.	.
4F\	.	.	.	.	.	.	.	.	.	.	.	.	.	4F\	-ctis	.	.	.	.	.	.	.
=12	=12	=12	=12	=12	=12	=12	=12	=12	=12	=12	=12	=12	=12	=12	=12	=12	=12	=12	=12	=12	=12	=12
4E-\	.	1r	.	1r	.	1r	2r	2r	2r	.	2.G\	4c\	.	4E-\	tu-	.	2.G/	-is	.	4c\	-is	.
4BBn/	.	.	.	.	.	.	.	.	.	.	.	4d\	.	4BBn/	-is	.	.	.	.	(>4d\	in	.
4C/	.	.	.	.	.	.	4r	4r	4r	.	.	4e-\	.	4C/	in	.	.	.	.	4e-\)	.	.
4BB/	.	.	.	.	.	.	4BBn/	4A-\	4f\	.	4A-\	4f\	.	4BB/	e-	.	4A-X/	e-	.	4f\	e-	.
=13	=13	=13	=13	=13	=13	=13	=13	=13	=13	=13	=13	=13	=13	=13	=13	=13	=13	=13	=13	=13	=13	=13
!LO:LB:g=original	!	!LO:LB:g=original	!	!LO:LB:g=original	!	!LO:LB:g=original	!LO:LB:g=original	!LO:LB:g=original	!LO:LB:g=original	!	!LO:LB:g=original	!LO:LB:g=original	!	!LO:LB:g=original	!	!	!LO:LB:g=original	!	!	!LO:LB:g=original	!	!
2.C/	.	1r	.	2r	.	2r	2.C/	2G/	1e-\	.	2G\	1e-\	.	2.C/	-ter-	.	2G/	-e-	.	1e-\	-ter-	.
.	.	.	.	4r	.	4r	.	[2c\	.	.	[2c\	.	.	.	.	.	[2c\	-ter-	.	.	.	.
4E-\	.	.	.	4G/ 4g/	.	4g/	4E-\	.	.	.	.	.	.	4E-\	.	.	.	.	.	.	.	.
=14	=14	=14	=14	=14	=14	=14	=14	=14	=14	=14	=14	=14	=14	=14	=14	=14	=14	=14	=14	=14	=14	=14
1G\	.	4r	.	1G/ 1g/	.	1g/	1G\	4c\]	1d\	.	4c\]	1d\	.	1G\	.	.	4c\]	.	.	1d\	.	.
.	.	16GG/LL	.	.	.	.	.	8Bn\L	.	.	8Bn\L	.	.	.	.	.	8Bn\L	.	.	.	.	.
.	.	16GG/	.	.	.	.	.	.	.	.	.	.	.	.	.	.	.	.	.	.	.	.
.	.	16GG/	.	.	.	.	.	8An\J	.	.	8An\J	.	.	.	.	.	8An\J	.	.	.	.	.
.	.	16GG/	.	.	.	.	.	.	.	.	.	.	.	.	.	.	.	.	.	.	.	.
.	.	16GG/	.	.	.	.	.	2B\	.	.	2B\	.	.	.	.	.	2B\	.	.	.	.	.
.	.	16GG/	.	.	.	.	.	.	.	.	.	.	.	.	.	.	.	.	.	.	.	.
.	.	16GG/	.	.	.	.	.	.	.	.	.	.	.	.	.	.	.	.	.	.	.	.
.	.	16GG/JJ	.	.	.	.	.	.	.	.	.	.	.	.	.	.	.	.	.	.	.	.
.	.	16GG/LL	.	.	.	.	.	.	.	.	.	.	.	.	.	.	.	.	.	.	.	.
.	.	16GG/	.	.	.	.	.	.	.	.	.	.	.	.	.	.	.	.	.	.	.	.
.	.	16GG/	.	.	.	.	.	.	.	.	.	.	.	.	.	.	.	.	.	.	.	.
.	.	16GG/JJ	.	.	.	.	.	.	.	.	.	.	.	.	.	.	.	.	.	.	.	.
=15||	=15||	=15||	=15||	=15||	=15||	=15||	=15||	=15||	=15||	=15||	=15||	=15||	=15||	=15||	=15||	=15||	=15||	=15||	=15||	=15||	=15||	=15||
!	!	!	!	!	!	!	!	!	!	!	!	!	!	!	!	!	!	!	!	!LO:TX:a:t=dolce	!	!
!	!LO:DY:b	!	!	!	!	!	!	!	!	!	!	!	!	!	!	!	!	!	!	!LO:TX:a:B:t=piu lento Tempo 1o di Requiem	!	!
4C/	p	4C/	.	4c/ 4g/	.	4c/ 4g/	4C/	4c\	4c\	.	4c\	4c\	.	4C/	-num	.	4c\	-num	.	4c\	-num	.
!	!	!	!	!	!	!	!	!	!	!	!	!LO:TX:a:t=dolce	!	!	!	!	!	!	!	!	!	!
2C/	.	4r	.	4r	.	4r	4r	4r	4r	.	2G\	2en\	.	2C/	qui-	.	2G/	qui-	.	2en\	qui-	.
.	.	2r	.	2r	.	2r	2r	2r	2r	.	.	.	.	.	.	.	.	.	.	.	.	.
4C/	.	.	.	.	.	.	.	.	.	.	4B-\	4e\	.	4C/	-a	.	4B-\	-a	.	4e\	-a	.
=16	=16	=16	=16	=16	=16	=16	=16	=16	=16	=16	=16	=16	=16	=16	=16	=16	=16	=16	=16	=16	=16	=16
!	!	!	!	!	!	!	!	!	!	!	!	!	!	!	!	!	!LO:SIC:v= brak kropki przy półnucie	!	!	!	!	!
!	!	!	!	!	!	!	!	!	!	!	!	!	!	!	!	!	!LO:N:vis=2	!	!	!	!	!
2C/	>	1r	.	1r	.	1r	2r	1r	1r	.	2.A-\	2.f\	.	2C/	pius	.	2.A-/	pius	.	(>2.f\	pius	.
2D-X\	]	.	.	.	.	.	2D-X\^	.	.	.	.	.	.	2D-X\	.	.	.	.	.	.	.	.
.	.	.	.	.	.	.	.	.	.	.	4F\	4Bn\	.	.	.	.	4F/	.	.	4Bn\)	.	.
=17	=17	=17	=17	=17	=17	=17	=17	=17	=17	=17	=17	=17	=17	=17	=17	=17	=17	=17	=17	=17	=17	=17
4C/	.	1r	.	1r	.	1r	4C/	1r	1r	.	4En\	4c\	.	4C/	es	.	4En/	es	.	4c\	es	.
2C/	.	.	.	.	.	.	4r	.	.	.	2G\	2en\	.	2C/	qui-	.	2G/	qui-	.	2en\	qui-	.
.	.	.	.	.	.	.	2r	.	.	.	.	.	.	.	.	.	.	.	.	.	.	.
4C/	.	.	.	.	.	.	.	.	.	.	4B-\	4e\	.	4C/	-a	.	4B-\	-a	.	4e\	-a	.
=18	=18	=18	=18	=18	=18	=18	=18	=18	=18	=18	=18	=18	=18	=18	=18	=18	=18	=18	=18	=18	=18	=18
2C/	>	1r	.	1r	.	1r	2r	1r	1r	.	2.A-\	2.f\	.	2C/	pius	.	2.A-\	pius	.	2.f\	pius	.
2D-X/	]	.	.	.	.	.	(<2D-X\^	.	.	.	.	.	.	2D-X\	.	.	.	.	.	.	.	.
.	.	.	.	.	.	.	.	.	.	.	4F\	4Bn\	.	.	.	.	4F/	.	.	4Bn\	.	.
=19	=19	=19	=19	=19	=19	=19	=19	=19	=19	=19	=19	=19	=19	=19	=19	=19	=19	=19	=19	=19	=19	=19
4C/	]	1r	.	1r	.	1r	4C/)	1r	1r	.	(>4En\	4c\	.	4C/	es	.	4En/	es	.	4c\	es	.
4C/	.	.	.	.	.	.	4r	.	.	.	4E\	4c\	<	(<4C/	qui-	.	(<4E/	qui-	.	(>4c\	qui-	<
4Dn/	.	.	.	.	.	.	2r	.	.	.	4F\	(>4Bn\	.	4D\)	.	.	4F/)	.	.	4Bn\	.	.
4En\	.	.	.	.	.	.	.	.	.	.	4G\	4B-X\	[[	4En\)	-a	.	4G/	-a	.	4B-X\)	-a	.
=20	=20	=20	=20	=20	=20	=20	=20	=20	=20	=20	=20	=20	=20	=20	=20	=20	=20	=20	=20	=20	=20	=20
2.F\	.	1r	.	1r	.	1r	1r	1r	1r	.	2F\)	2A-\)	.	2.F\	pius	.	2F/	pius	.	2A-\	pius	.
.	.	.	.	.	.	.	.	.	.	.	2F\	2A-\	.	.	.	.	2F/	.	.	2A-\	.	[[
4BBn/	.	.	.	.	.	.	.	.	.	.	.	.	.	4BBn/	.	.	.	.	.	.	.	.
=21	=21	=21	=21	=21	=21	=21	=21	=21	=21	=21	=21	=21	=21	=21	=21	=21	=21	=21	=21	=21	=21	=21
2C/	.	1r	.	1r	.	1r	2r	2r	2r	.	2En\	2G/	.	2C/	es	.	2En/	es	.	2G/	es	.
!	!LO:DY:b	!	!	!	!	!	!	!	!	!	!	!	!	!	!	!	!	!	!	!	!	!
2C/	sf	.	.	.	.	.	[2C/	2En/	2c\	f	2E\	2c\	f	[2C/	do-	.	(<2E/	do-	.	(>2c\	do-	f
=22	=22	=22	=22	=22	=22	=22	=22	=22	=22	=22	=22	=22	=22	=22	=22	=22	=22	=22	=22	=22	=22	=22
2C/	.	1r	.	1r	.	1r	2C/]	2F/	2d-X\	.	2F\	2d-X\	.	2C/]	.	.	2F/)	.	.	2d-X\)	.	.
2BB-X/	.	.	.	.	.	.	2BB-/	2F/	2d-\	.	2F\	2d-\	.	2BB-/	-na	.	2F/	-na	.	2d-\	-na	.
=23	=23	=23	=23	=23	=23	=23	=23	=23	=23	=23	=23	=23	=23	=23	=23	=23	=23	=23	=23	=23	=23	=23
2E-\	.	1r	.	1r	.	1e-X/	2E-\	2G/	2B-\	.	2G\	2B-\	.	2E-\	e-	.	2G/	e-	.	2B-\	e-	.
2E-\	.	.	.	.	.	.	2E-\	2G/	2B-\	.	2G\	2B-\	.	2E-\	-i	.	2G/	-i	.	2B-\	-i	.
=24	=24	=24	=24	=24	=24	=24	=24	=24	=24	=24	=24	=24	=24	=24	=24	=24	=24	=24	=24	=24	=24	=24
!	!	!	!	!	!	!LO:N:vis=2	!	!	!	!	!	!	!	!	!	!	!	!	!	!	!	!
2.AA-/	.	1r	.	1r	.	2.e-X/	2.AA-/	2.A-\	2.c\	.	2.A-\	2.c\	.	2.AA-/	Re-	.	2.A-\	Re-	.	2.c\	Re-	.
.	.	.	.	.	.	.	.	.	.	.	.	.	.	.	.	.	.	.	.	.	.	.
4AA-/	.	.	.	.	.	4r	4r	4r	4r	.	4E-\	4c\	.	4AA-/	-qui-	.	4E-/	-qui-	.	4c\	-quiem	.
=25	=25	=25	=25	=25	=25	=25	=25	=25	=25	=25	=25	=25	=25	=25	=25	=25	=25	=25	=25	=25	=25	=25
!	!LO:DY:b	!	!	!	!	!	!	!	!	!	!	!	!	!	!	!	!	!	!	!	!	!
4AA-/	fp	1r	.	1r	.	1r	1r	1r	1r	.	4E-\	4c\	.	4AA-/	-em	.	4E-/	-em	.	4c\	.	.
4r	.	.	.	.	.	.	.	.	.	.	4r	4A-\	p	4r	.	.	4r	.	.	4A-\	et	<
2r	.	.	.	.	.	.	.	.	.	.	2r	4G/	.	2r	.	.	2r	.	.	4G/	lux	[
.	.	.	.	.	.	.	.	.	.	.	.	.	.	.	.	.	.	.	.	.	.	.
.	.	.	.	.	.	.	.	.	.	.	.	4F/	.	.	.	.	.	.	.	4F/	per-	.
=26	=26	=26	=26	=26	=26	=26	=26	=26	=26	=26	=26	=26	=26	=26	=26	=26	=26	=26	=26	=26	=26	=26
!LO:LB:g=original	!	!LO:LB:g=original	!	!LO:LB:g=original	!	!LO:LB:g=original	!LO:LB:g=original	!LO:LB:g=original	!LO:LB:g=original	!	!LO:LB:g=original	!	!	!LO:LB:g=original	!	!	!LO:LB:g=original	!	!	!LO:LB:g=original	!	!
1r	.	1r	.	1r	.	1r	1r	1r	1r	.	4r	4.F/	.	1r	.	.	4r	.	.	4.F/	-pe-	.
.	.	.	.	.	.	.	.	.	.	.	4d-X\	.	.	.	.	.	4d-X\	et	.	.	.	.
.	.	.	.	.	.	.	.	.	.	.	.	8En/	.	.	.	.	.	.	.	8En/	-tu-	.
.	.	.	.	.	.	.	.	.	.	.	4c\	4E/	.	.	.	.	4c\	lux	.	4E/	-a	.
.	.	.	.	.	.	.	.	.	.	.	4B-\	4r	.	.	.	.	4B-\	per-	.	4r	.	.
=27	=27	=27	=27	=27	=27	=27	=27	=27	=27	=27	=27	=27	=27	=27	=27	=27	=27	=27	=27	=27	=27	=27
4r	.	1r	.	1r	.	1r	1r	1r	1r	.	4.B-\	1r	.	4r	.	.	4.B-\	-pe-	.	1r	.	.
4F\	.	.	.	.	.	.	.	.	.	.	.	.	.	4F\	et	.	.	.	.	.	.	.
.	.	.	.	.	.	.	.	.	.	.	8A-\	.	.	.	.	.	8A-\	-tu-	.	.	.	.
4D-X/	.	.	.	.	.	.	.	.	.	.	4A-\	.	.	4D-X\	lux	.	4A-\	-a	.	.	.	.
4C/	.	.	.	.	.	.	.	.	.	.	4r	.	.	[4C/	per-	.	4r	.	.	.	.	.
=28	=28	=28	=28	=28	=28	=28	=28	=28	=28	=28	=28	=28	=28	=28	=28	=28	=28	=28	=28	=28	=28	=28
4.C/	.	1r	.	1r	.	1r	1r	1r	1r	.	4r	4r	.	4C/]	-pe-	.	4r	.	.	4r	.	.
!	!	!	!	!	!	!	!	!	!	!	!LO:SIC:v:s=niejednoznaczna wysokość dzięwięku	!	!	!	!	!	!	!	!	!	!	!
.	.	.	.	.	.	.	.	.	.	.	4B-\	4f\	.	4BBn/	-tu-	.	(>4A-/	lu-	.	4f\	lu-	.
8BBn/	.	.	.	.	.	.	.	.	.	.	.	.	.	.	.	.	.	.	.	.	.	.
4BB/	.	.	.	.	.	.	.	.	.	.	4G\	4e-\	.	4BB/	-a	.	4G/	.	.	4e-\	.	.
4r	.	.	.	.	.	.	.	.	.	.	4F\	[4dn\	.	4r	.	.	4F/)	.	.	[4dn\	.	.
=29	=29	=29	=29	=29	=29	=29	=29	=29	=29	=29	=29	=29	=29	=29	=29	=29	=29	=29	=29	=29	=29	=29
2C/	.	1r	.	1r	.	2r	4r	4r	4r	.	2E-\	4d\]	.	2C/	lu-	.	2E-/	.	.	4d\]	.	.
.	.	.	.	.	.	.	4C/	4E-/	4c\	.	.	4c\	.	.	.	.	.	.	.	4c\	-ce-	.
4Dn\	.	.	.	.	.	4r	4D/	4F/	4Bn\	.	4F\	4Bn\	.	4Dn\	-ce-	.	4F/	-ce-	.	4Bn\	-at	.
*	*	*	*	*	*	*^	*	*	*	*	*	*	*	*	*	*	*	*	*	*	*	*
4E-\	.	.	.	.	.	4g/	4g\	4E-\	4G/	4c\	.	4G\	[4c\	.	4E-\	-at	.	4G/	-at	.	[4c\	.	.
=30	=30	=30	=30	=30	=30	=30	=30	=30	=30	=30	=30	=30	=30	=30	=30	=30	=30	=30	=30	=30	=30	=30	=30
2F\	.	1r	.	2r	.	2a-X/	2f\	2F\	2A-\	4c\	.	2A-\	4c\]	.	2F\	e-	.	2A-/	e-	.	4c\]	.	.
.	.	.	.	.	.	.	.	.	.	4d\	.	.	4d\	.	.	.	.	.	.	.	4d\	e-	<
2G\	.	.	.	2G/ 2g/	.	2g/	2g\	2G\	4c\	4e-\	.	4c\	4e-\	.	2G\	.	.	4c\	.	.	4e-\	.	.
.	.	.	.	.	.	.	.	.	4Bn\	4d\	.	4Bn\	4d\	.	.	.	.	4Bn\	.	.	4d\	.	[[
=31	=31	=31	=31	=31	=31	=31	=31	=31	=31	=31	=31	=31	=31	=31	=31	=31	=31	=31	=31	=31	=31	=31	=31
4C/	.	1r	.	4G/ 4g/	.	4g/	4c\	4C/	4c\	4c\	.	4c\	4c\	.	4C/	-i	.	4c\	-i	.	4c\	-i	.
!	!	!	!	!	!	!	!	!	!	!	!	!LO:SIC:v=problem: brak pauzy	!	!	!	!	!	!	!	!	!	!	!
4r	.	.	.	4r	.	4r	4ryy	4r	4r	4r	.	4ryy	4r	.	4r	.	.	[2.c\	Re-	<	4r	.	.
[2C/	.	.	.	2r	.	2r	2ryy	2r	2r	2r	.	[2c\	2e-\	p<	[2C/	Re-	.	.	.	[	(>2c\	Re-	p
*	*	*	*	*	*	*v	*v	*	*	*	*	*	*	*	*	*	*	*	*	*	*	*	*
=32	=32	=32	=32	=32	=32	=32	=32	=32	=32	=32	=32	=32	=32	=32	=32	=32	=32	=32	=32	=32	=32	=32
4.C/]	.	1r	.	1r	.	1r	1r	1r	1r	.	4.c\]	4.e-\	[	4.C/]	.	.	4.c\]	.	.	4.e-\)	.	.
8C/	.	.	.	.	.	.	.	.	.	.	8G\	8e-\	.	8C/	-qui-	.	8G/	-qui-	.	8e-\	-qui-	.
4F\	.	.	.	.	.	.	.	.	.	.	4A-\	4d\	.	4F\	-em	.	4A-/	-em	.	4d\	-em	.
4E-\	.	.	.	.	.	.	.	.	.	.	4G\	[4c\	.	4E-\	e-	.	4G/	e-	.	[4c\	e-	.
=33	=33	=33	=33	=33	=33	=33	=33	=33	=33	=33	=33	=33	=33	=33	=33	=33	=33	=33	=33	=33	=33	=33
2D\	.	1r	.	1r	.	1r	1r	1r	1r	.	2F\	4c\]	.	2D/	-ter-	.	2F/	-ter-	.	4c\]	-ter-	.
.	.	.	.	.	.	.	.	.	.	.	.	4Bn\	.	.	.	.	.	.	.	4Bn\	.	.
4C/	.	.	.	.	.	.	.	.	.	.	4E-\	4c\	.	4C/	-nam	.	4E-/	-nam	.	4c\	-nam	.
4BBn/	.	.	.	.	.	.	.	.	.	.	[4G\	4d\	.	(<4BBn/	do-	.	[4G/	do-	.	(>4d\	do-	.
=34	=34	=34	=34	=34	=34	=34	=34	=34	=34	=34	=34	=34	=34	=34	=34	=34	=34	=34	=34	=34	=34	=34
4C/	.	1r	.	1r	.	1r	1r	1r	1r	.	4G\]	4e-\	.	4C/)	.	.	4G/]	.	.	4e-\)	.	.
4BB-X/	.	.	.	.	.	.	.	.	.	.	4G\	4d\	.	4BB-X/	-na	.	4G/	-na	.	4d\	-na	.
2AA-/	.	.	.	.	.	.	.	.	.	.	4G\	2c\	.	2AA-/	e-	.	4G/	e-	.	2c\	e-	.
.	.	.	.	.	.	.	.	.	.	.	4F#X\	.	.	.	.	.	4F#X/	.	.	.	.	.
=35	=35	=35	=35	=35	=35	=35	=35	=35	=35	=35	=35	=35	=35	=35	=35	=35	=35	=35	=35	=35	=35	=35
!	!	!	!LO:DY:b:rj	!	!LO:DY:b:rj	!	!	!	!	!	!	!	!	!	!	!	!	!	!	!	!	!
1GG/	.	16GG/LL	p	1G/ 1g/	p	1g/	1r	1r	1r	.	4G\	(>4Bn\	.	4GG/	-i	.	2G/	-i	.	2Bn\	-i	.
.	.	16GG/	.	.	.	.	.	.	.	.	.	.	.	.	.	.	.	.	.	.	.	.
.	.	16GG/	.	.	.	.	.	.	.	.	.	.	.	.	.	.	.	.	.	.	.	.
.	.	16GG/	.	.	.	.	.	.	.	.	.	.	.	.	.	.	.	.	.	.	.	.
.	.	16GG/	.	.	.	.	.	.	.	.	4An\	4c\	.	2G\	Do-	.	.	.	.	.	.	.
.	.	16GG/	.	.	.	.	.	.	.	.	.	.	.	.	.	.	.	.	.	.	.	.
.	.	16GG/	.	.	.	.	.	.	.	.	.	.	.	.	.	.	.	.	.	.	.	.
.	.	16GG/	.	.	.	.	.	.	.	.	.	.	.	.	.	.	.	.	.	.	.	.
.	.	16GG/	.	.	.	.	.	.	.	.	4Bn\	4d\	.	.	.	.	2r	.	.	2r	.	.
.	.	16GG/	.	.	.	.	.	.	.	.	.	.	.	.	.	.	.	.	.	.	.	.
.	.	16GG/	.	.	.	.	.	.	.	.	.	.	.	.	.	.	.	.	.	.	.	.
.	.	16GG/	.	.	.	.	.	.	.	.	.	.	.	.	.	.	.	.	.	.	.	.
.	.	16GG/	.	.	.	.	.	.	.	.	4c\	4e-\)	.	4G\	-mi-	.	.	.	.	.	.	.
.	.	16GG/	.	.	.	.	.	.	.	.	.	.	.	.	.	.	.	.	.	.	.	.
.	.	16GG/	.	.	.	.	.	.	.	.	.	.	.	.	.	.	.	.	.	.	.	.
.	.	16GG/JJ	.	.	.	.	.	.	.	.	.	.	.	.	.	.	.	.	.	.	.	.
=36	=36	=36	=36	=36	=36	=36	=36	=36	=36	=36	=36	=36	=36	=36	=36	=36	=36	=36	=36	=36	=36	=36
4GG/	.	16GG/LL	.	1G/ 1g/	.	1g/	1r	1r	1r	.	2.Bn\	2.d\	.	2G\	-ne	.	2.Bn\	Do-	.	2.d\	Do-	p
.	.	16GG/	.	.	.	.	.	.	.	.	.	.	.	.	.	.	.	.	.	.	.	.
.	.	16GG/	.	.	.	.	.	.	.	.	.	.	.	.	.	.	.	.	.	.	.	.
.	.	16GG/	.	.	.	.	.	.	.	.	.	.	.	.	.	.	.	.	.	.	.	.
4G\	.	16GG/	.	.	.	.	.	.	.	.	.	.	.	.	.	.	.	.	.	.	.	.
.	.	16GG/	.	.	.	.	.	.	.	.	.	.	.	.	.	.	.	.	.	.	.	.
.	.	16GG/	.	.	.	.	.	.	.	.	.	.	.	.	.	.	.	.	.	.	.	.
.	.	16GG/	.	.	.	.	.	.	.	.	.	.	.	.	.	.	.	.	.	.	.	.
4GG/	.	16GG/	.	.	.	.	.	.	.	.	.	.	.	2r	.	.	.	.	.	.	.	.
.	.	16GG/	.	.	.	.	.	.	.	.	.	.	.	.	.	.	.	.	.	.	.	.
.	.	16GG/	.	.	.	.	.	.	.	.	.	.	.	.	.	.	.	.	.	.	.	.
.	.	16GG/	.	.	.	.	.	.	.	.	.	.	.	.	.	.	.	.	.	.	.	.
4r	.	16GG/	.	.	.	.	.	.	.	.	8c\L	8e-\L	.	.	.	.	8c\L	-mi-	.	8e-\L	-mi-	.
.	.	16GG/	.	.	.	.	.	.	.	.	.	.	.	.	.	.	.	.	.	.	.	.
.	.	16GG/	.	.	.	.	.	.	.	.	8d\J	8f\J	.	.	.	.	8d\J	.	.	8f\J	.	.
.	.	16GG/JJ	.	.	.	.	.	.	.	.	.	.	.	.	.	.	.	.	.	.	.	.
=37	=37	=37	=37	=37	=37	=37	=37	=37	=37	=37	=37	=37	=37	=37	=37	=37	=37	=37	=37	=37	=37	=37
2r	.	4C/	.	4G/ 4g/	.	4c/ 4g/	1r	1r	1r	.	4c\	4e-\	.	2r	.	.	4c\	-ne	.	4e-\	-ne	.
!	!	!	!	!	!	!	!	!	!	!	!LO:SIC:v=brak pauzy	!	!	!	!	!	!	!	!	!	!	!
.	.	4r	.	4r	.	4r	.	.	.	.	4ryy	4r	.	.	.	.	2.c\	Re-	.	4r	.	.
2C/	.	2r	.	2r	.	2r	.	.	.	.	2c\	[2e-\	.	2C/	Re-	.	.	.	.	[2e-\	Re-	.
=38	=38	=38	=38	=38	=38	=38	=38	=38	=38	=38	=38	=38	=38	=38	=38	=38	=38	=38	=38	=38	=38	=38
!LO:LB:g=original	!	!LO:LB:g=original	!	!LO:LB:g=original	!	!LO:LB:g=original	!LO:LB:g=original	!LO:LB:g=original	!LO:LB:g=original	!	!LO:LB:g=original	!LO:LB:g=original	!	!LO:LB:g=original	!	!	!LO:LB:g=original	!	!	!LO:LB:g=original	!	!
!	!	!	!	!	!	!	!	!	!	!	!	!LO:SIC:v=końcówka kaudy z poprzedniej strony a brak początku	!	!	!	!	!	!	!	!	!	!
4.C/	.	1r	.	1r	.	1r	1r	1r	1r	.	4.c\	4.e-\]	.	4.C/	-qui-	.	4.c\	.	.	4.e-\]	-qui-	.
8C/	.	.	.	.	.	.	.	.	.	.	8G\	8e-\	.	8C/	.	.	8G/	-qui-	.	8e-\	.	.
4F\	.	.	.	.	.	.	.	.	.	.	4A-\	4d\	.	4F\	-em	.	4A-/	-em	.	4d\	-em	.
4E-\	.	.	.	.	.	.	.	.	.	.	4G\	4c\	.	4E-\	e-	.	4G/	e-	.	(>4c\	e-	.
=39	=39	=39	=39	=39	=39	=39	=39	=39	=39	=39	=39	=39	=39	=39	=39	=39	=39	=39	=39	=39	=39	=39
2D/	.	1r	.	1r	.	1r	2r	2r	2r	.	2F\	4c\	.	2D/	-ter-	.	2F/	-ter-	.	4c\	-ter-	.
.	.	.	.	.	.	.	.	.	.	.	.	4Bn\	.	.	.	.	.	.	.	4Bn\)	.	.
4C/	.	.	.	.	.	.	4r	4r	4r	.	4E-\	4c\	.	4C/	-nam	.	4E-/	-nam	.	4c\	-nam	.
8G\L	.	.	.	.	.	.	8G\L	4Bn\	4d\	.	4Bn\	4d\	.	8G\L	e-	.	4Bn\	e-	.	4d\	e-	.
8F\J	.	.	.	.	.	.	8F\J	.	.	.	.	.	.	8F\J	.	.	.	.	.	.	.	.
=40	=40	=40	=40	=40	=40	=40	=40	=40	=40	=40	=40	=40	=40	=40	=40	=40	=40	=40	=40	=40	=40	=40
4E-\	.	1r	.	1r	.	1r	4E-\	2.c\	2e-\	.	2.c\	2e-\	.	4E-\	-ter-	.	2.c\	-ter-	.	2e-\	-ter-	.
8A-\L	.	.	.	.	.	.	8A-\L	.	.	.	.	.	.	8A-\L	.	.	.	.	.	.	.	.
8G\J	.	.	.	.	.	.	8G\J	.	.	.	.	.	.	8G\J	.	.	.	.	.	.	.	.
4F\	.	.	.	.	.	.	4F\	.	2d\	.	.	2d\	.	4F\	.	.	.	.	.	2d\	.	.
4G\	.	.	.	.	.	.	4G\	4Bn\	.	.	4Bn\	.	.	4G\	.	.	4Bn\	.	.	.	.	.
=41	=41	=41	=41	=41	=41	=41	=41	=41	=41	=41	=41	=41	=41	=41	=41	=41	=41	=41	=41	=41	=41	=41
2.A-\;	.	2r;	.	2.r;	.	2.r;	2.A-\;	2.c\;	2.c\;	.	2.c\;	2.c\;	.	2.A-\;	-nam	.	2.c\;	-nam	.	2.c\;	-nam	>
.	.	4r	.	.	.	.	.	.	.	.	.	.	.	.	.	.	.	.	.	.	.	]
8G\L	.	4r	.	4G/ 4g/	.	4g/	8G\L	4Bn\	4d\	.	4Bn\	4d\	.	(>8G\L	e-	.	4Bn\	e-	.	4d\	e-	.
8F\J	.	.	.	.	.	.	8F\J	.	.	.	.	.	.	8F\J	.	.	.	.	.	.	.	.
=42	=42	=42	=42	=42	=42	=42	=42	=42	=42	=42	=42	=42	=42	=42	=42	=42	=42	=42	=42	=42	=42	=42
!	!	!	!	!	!	!	!	!LO:N:vis=2	!	!	!	!	!	!	!	!	!	!	!	!	!	!
4E-\	.	2r	.	4G/ 4g/	.	4g/	4E-\	2.c\	2e-\	.	2.c\	2e-\	.	4E-\)	-ter-	.	2.c\	-ter-	.	2e-\	-ter-	.
8A-\L	.	.	.	4r	.	4r	8A-\L	.	.	.	.	.	.	8A-\L	.	.	.	.	.	.	.	.
8G\J	.	.	.	.	.	.	8G\J	.	.	.	.	.	.	8G\J	.	.	.	.	.	.	.	.
4F\	.	4r	.	4r	.	4r	4F\	.	2d\	.	.	2d\	.	4F\	.	.	.	.	.	2d\	.	.
4G\	.	4GG/	.	4G/ 4g/	.	4g/	4G\	4Bn\	.	.	4Bn\	.	.	4G\	.	.	4Bn\	.	.	.	.	.
=43	=43	=43	=43	=43	=43	=43	=43	=43	=43	=43	=43	=43	=43	=43	=43	=43	=43	=43	=43	=43	=43	=43
4C/	.	4C/	.	4G/ 4g/	.	4c/ 4g/	4C/	4c\	4c\	.	4c\	4c\	.	4C/	-nam	.	4c\	-nam	.	4c\	-nam	.
*	*	*Xtremolo	*	*	*	*	*	*	*	*	*	*	*	*	*	*	*	*	*	*	*	*
8C/L	.	8C/L	.	8c/L	.	8c/L	2C/	2E-/	2c\	.	8E-\L	8c\L	.	8C/	do-	.	8E-/	do-	.	8c\	do-	.
8C/J	.	8C/J	.	8c/J	.	8c/J	.	.	.	.	8E-\J	8c\J	.	8C/	-na	.	8E-/	-na	.	8c\	-na	.
4C/	.	4C/	.	4c/	.	4c/	.	.	.	.	4E-\	4c\	.	4C/	e-	.	4E-/	e-	.	4c\	e-	.
4C/	.	4C/	.	4c/	.	4c/	4C/	4E-/	4c\	.	4E-\	4c\	.	4C/	-i	.	4E-/	-i	.	4c\	-i	.
=44	=44	=44	=44	=44	=44	=44	=44	=44	=44	=44	=44	=44	=44	=44	=44	=44	=44	=44	=44	=44	=44	=44
4.C/	.	4.C/	.	4.c/	.	2e/ 2g/	1C/	2En/	2B-\	.	2En\	2B-\	.	2C/	do-	.	2En/	do-	.	2B-\	do-	.
8C/	.	8C/	.	8c/	.	.	.	.	.	.	.	.	.	.	.	.	.	.	.	.	.	.
4C/	.	4C/	.	4c/	.	2f/ [2a-X/	.	2F/	2A-\	.	2F\	2A-\	.	2C/	-na	.	2F/	-na	.	2A-\	-na	.
4C/	.	4C/	.	4c/	.	.	.	.	.	.	.	.	.	.	.	.	.	.	.	.	.	.
=45	=45	=45	=45	=45	=45	=45	=45	=45	=45	=45	=45	=45	=45	=45	=45	=45	=45	=45	=45	=45	=45	=45
*	*	*tremolo	*	*	*	*	*	*	*	*	*	*	*	*	*	*	*	*	*	*	*	*
1C/	.	16C/LL	.	1c/	.	4f/ 4a-/]	1C/	2F/	2A-\	.	4.F\	4.A-\	.	2C/	e-	.	4.F/	e-	.	4.A-\	e-	.
.	.	16C/	.	.	.	.	.	.	.	.	.	.	.	.	.	.	.	.	.	.	.	.
.	.	16C/	.	.	.	.	.	.	.	.	.	.	.	.	.	.	.	.	.	.	.	.
.	.	16C/	.	.	.	.	.	.	.	.	.	.	.	.	.	.	.	.	.	.	.	.
.	.	16C/	.	.	.	4r	.	.	.	.	.	.	.	.	.	.	.	.	.	.	.	.
.	.	16C/	.	.	.	.	.	.	.	.	.	.	.	.	.	.	.	.	.	.	.	.
.	.	16C/	.	.	.	.	.	.	.	.	8F\	8A-\	.	.	.	.	8F/	-i	.	8A-\	-i	.
.	.	16C/	.	.	.	.	.	.	.	.	.	.	.	.	.	.	.	.	.	.	.	.
.	.	16C/	.	.	.	2r	.	4E-X/	4G/	.	4E-X\	4G/	.	2C/	-i	.	4E-X/	re-	.	4G/	re-	.
.	.	16C/	.	.	.	.	.	.	.	.	.	.	.	.	.	.	.	.	.	.	.	.
.	.	16C/	.	.	.	.	.	.	.	.	.	.	.	.	.	.	.	.	.	.	.	.
.	.	16C/	.	.	.	.	.	.	.	.	.	.	.	.	.	.	.	.	.	.	.	.
.	.	16C/	.	.	.	.	.	4D/	4F/	.	4D\	4F/	.	.	.	.	4D/	-qui-	.	4F/	-qui-	.
.	.	16C/	.	.	.	.	.	.	.	.	.	.	.	.	.	.	.	.	.	.	.	.
.	.	16C/	.	.	.	.	.	.	.	.	.	.	.	.	.	.	.	.	.	.	.	.
.	.	16C/JJ	.	.	.	.	.	.	.	.	.	.	.	.	.	.	.	.	.	.	.	.
=46	=46	=46	=46	=46	=46	=46	=46	=46	=46	=46	=46	=46	=46	=46	=46	=46	=46	=46	=46	=46	=46	=46
4.C/	.	4.C/	.	4.c/	.	2e/ 2g/	1C/	2En/	2G/	.	2En\	2G/	.	2C/	re-	.	2En/	-em	.	2G/	-em	.
8C/	.	8C/	.	8c/	.	.	.	.	.	.	.	.	.	.	.	.	.	.	.	.	.	.
4C/	.	4C/	.	4c/	.	2f/ 2a-X/	.	2F/	2A-\	.	2F\	2A-\	.	2C/	-qui-	.	2F/	re-	.	2A-\	re-	.
4C/	.	4C/	.	4c/	.	.	.	.	.	.	.	.	.	.	.	.	.	.	.	.	.	.
=47	=47	=47	=47	=47	=47	=47	=47	=47	=47	=47	=47	=47	=47	=47	=47	=47	=47	=47	=47	=47	=47	=47
*	*	*	*	*	*	*	*	*	*	*	*	*	*	*	*	*	*^	*	*	*^	*	*
1C/	.	16C/LL	.	1c/	.	4f/ 4a-X/	1C/	2.F/	2A-\	.	4.F\	4.D/ 4.Bn/	.	2C/	-em	.	4.F/	[4.D\	.	.	4.Bn/	4.A-\	.	.
.	.	16C/	.	.	.	.	.	.	.	.	.	.	.	.	.	.	.	.	.	.	.	.	.	.
.	.	16C/	.	.	.	.	.	.	.	.	.	.	.	.	.	.	.	.	.	.	.	.	.	.
.	.	16C/	.	.	.	.	.	.	.	.	.	.	.	.	.	.	.	.	.	.	.	.	.	.
.	.	16C/	.	.	.	4r	.	.	.	.	.	.	.	.	.	.	.	.	.	.	.	.	.	.
.	.	16C/	.	.	.	.	.	.	.	.	.	.	.	.	.	.	.	.	.	.	.	.	.	.
.	.	16C/	.	.	.	.	.	.	.	.	8F\	8D/ 8B/	.	.	.	.	8F/	8D\]	-qui-	.	8B/	8A-\	-qui-	.
.	.	16C/	.	.	.	.	.	.	.	.	.	.	.	.	.	.	.	.	.	.	.	.	.	.
.	.	16C/	.	.	.	2r	.	.	4G/	.	4G\	4D/ 4B/	.	2C/	e-	.	4G/	4D\	-em	.	4B/	4G\	-em	.
.	.	16C/	.	.	.	.	.	.	.	.	.	.	.	.	.	.	.	.	.	.	.	.	.	.
.	.	16C/	.	.	.	.	.	.	.	.	.	.	.	.	.	.	.	.	.	.	.	.	.	.
.	.	16C/	.	.	.	.	.	.	.	.	.	.	.	.	.	.	.	.	.	.	.	.	.	.
.	.	16C/	.	.	.	.	.	4D/	4Bn\	.	4F\	4D/ 4B/	.	.	.	.	4F/	4D\	e-	.	4B/	4F\	e-	.
.	.	16C/	.	.	.	.	.	.	.	.	.	.	.	.	.	.	.	.	.	.	.	.	.	.
.	.	16C/	.	.	.	.	.	.	.	.	.	.	.	.	.	.	.	.	.	.	.	.	.	.
.	.	16C/JJ	.	.	.	.	.	.	.	.	.	.	.	.	.	.	.	.	.	.	.	.	.	.
=48	=48	=48	=48	=48	=48	=48	=48	=48	=48	=48	=48	=48	=48	=48	=48	=48	=48	=48	=48	=48	=48	=48	=48	=48
*	*	*	*	*	*	*	*	*	*	*	*	*^	*	*	*	*	*	*	*	*	*	*	*	*
1C/	.	4C/	.	4c/	.	4r	1C/	1En/	2c\	.	2En\	2c/	2En\	.	1C/	-ter-	.	2En/	2En\	-ter-	.	2c/	1G\	-ter-	.
*	*	*Xtremolo	*	*	*	*	*	*	*	*	*	*	*	*	*	*	*	*	*	*	*	*	*	*	*
.	.	8C/L	.	8c/L	.	8C/L 8c/	.	.	.	.	.	.	.	.	.	.	.	.	.	.	.	.	.	.	.
.	.	8C/J	.	8c/J	.	8C/J 8c/	.	.	.	.	.	.	.	.	.	.	.	.	.	.	.	.	.	.	.
.	.	4C/	.	4c/	.	4C/ 4c/	.	.	2G/	.	4.c\	2en/	2G\	.	.	.	.	4.c/	2G\	.	.	2en/	.	.	.
.	.	4C/	.	4c/	.	4C/ 4c/	.	.	.	.	.	.	.	.	.	.	.	.	.	.	.	.	.	.	.
.	.	.	.	.	.	.	.	.	.	.	8B-\	.	.	.	.	.	.	8B-/	.	.	.	.	.	.	.
*	*	*	*	*	*	*	*	*	*	*	*	*v	*v	*	*	*	*	*	*	*	*	*	*	*	*
=49	=49	=49	=49	=49	=49	=49	=49	=49	=49	=49	=49	=49	=49	=49	=49	=49	=49	=49	=49	=49	=49	=49	=49	=49
*	*	*tremolo	*	*	*	*	*	*	*	*	*	*	*	*	*	*	*	*	*	*	*	*	*	*
1FF/ 1F/	.	16C/LL	.	1c/	.	1C/ 1c/	1FF/	1F/	1A-\	.	1A-\ 1c\	1A-\ 1f\	.	1F\	.	.	1A-/	1F\	.	.	1f/	1A-\	.	.
.	.	16C/	.	.	.	.	.	.	.	.	.	.	.	.	.	.	.	.	.	.	.	.	.	.
.	.	16C/	.	.	.	.	.	.	.	.	.	.	.	.	.	.	.	.	.	.	.	.	.	.
.	.	16C/	.	.	.	.	.	.	.	.	.	.	.	.	.	.	.	.	.	.	.	.	.	.
.	.	16C/	.	.	.	.	.	.	.	.	.	.	.	.	.	.	.	.	.	.	.	.	.	.
.	.	16C/	.	.	.	.	.	.	.	.	.	.	.	.	.	.	.	.	.	.	.	.	.	.
.	.	16C/	.	.	.	.	.	.	.	.	.	.	.	.	.	.	.	.	.	.	.	.	.	.
.	.	16C/	.	.	.	.	.	.	.	.	.	.	.	.	.	.	.	.	.	.	.	.	.	.
.	.	16C/	.	.	.	.	.	.	.	.	.	.	.	.	.	.	.	.	.	.	.	.	.	.
.	.	16C/	.	.	.	.	.	.	.	.	.	.	.	.	.	.	.	.	.	.	.	.	.	.
.	.	16C/	.	.	.	.	.	.	.	.	.	.	.	.	.	.	.	.	.	.	.	.	.	.
.	.	16C/	.	.	.	.	.	.	.	.	.	.	.	.	.	.	.	.	.	.	.	.	.	.
.	.	16C/	.	.	.	.	.	.	.	.	.	.	.	.	.	.	.	.	.	.	.	.	.	.
.	.	16C/	.	.	.	.	.	.	.	.	.	.	.	.	.	.	.	.	.	.	.	.	.	.
.	.	16C/	.	.	.	.	.	.	.	.	.	.	.	.	.	.	.	.	.	.	.	.	.	.
.	.	16C/JJ	.	.	.	.	.	.	.	.	.	.	.	.	.	.	.	.	.	.	.	.	.	.
=50	=50	=50	=50	=50	=50	=50	=50	=50	=50	=50	=50	=50	=50	=50	=50	=50	=50	=50	=50	=50	=50	=50	=50	=50
0C/	<	0C/	.	0c/	.	0C/ 0c/	0C/	0En/	0G/	.	0G\ 0c\	0G\ 0en\	.	0C/	-nam.	.	0c/	0G\	-nam.	.	0en/	0G\	-nam.	.
.	[	.	.	.	.	.	.	.	.	.	.	.	.	.	.	.	.	.	.	.	.	.	.	.
.	>	.	.	.	.	.	.	.	.	.	.	.	.	.	.	.	.	.	.	.	.	.	.	.
.	]	.	.	.	.	.	.	.	.	.	.	.	.	.	.	.	.	.	.	.	.	.	.	.
*	*	*	*	*	*	*	*	*	*	*	*	*	*	*	*	*	*v	*v	*	*	*	*	*	*
*	*	*	*	*	*	*	*	*	*	*	*	*	*	*	*	*	*	*	*	*v	*v	*	*
==	==	==	==	==	==	==	==	==	==	==	==	==	==	==	==	==	==	==	==	==	==	==
*-	*-	*-	*-	*-	*-	*-	*-	*-	*-	*-	*-	*-	*-	*-	*-	*-	*-	*-	*-	*-	*-	*-
!!!system-decoration: [(s1,s2,s3,s4,s5)][(s6,s7,s8)][(s9,s10,s11,s12)]
!!!RDF**kern: > = above
!!!RDF**kern: < = below
!!!ENC: Andrzej Borzym
!!!END: 2020-02-10
!!!ENC: Leszek Kubiak
!!!END: 2020-03-13
!!!YEC: Copyright 2022 Narodowy Instytut Fryderyka Chopina (https://polishscores.org)
!!!YEM: Licence CC BY 4.0 (https://creativecommons.org/licenses/by/4.0)
